X:1
T:Sowing with Song and Prayer
T:A. F. Myers, 1897
T:Sowing with Song and Prayer
T:Public Domain
T:Public Domain
T:Public Domain
C:A. F. Myers, 1897
Z:Public Domain
%%score ( 1 2 ) ( 3 4 )
L:1/8
M:3/4
K:Ab
V:1 treble 
V:2 treble 
V:3 bass 
V:4 bass 
V:1
"^Cheerfully" (3[CE][CE][CE] | [Ec]2 [Ec]2 [CA]2 (3EEE x | [Ed]2 [Ed]2 [Ec]2 (3EEE x | %3
w: Sow- ing by|word and deed, Scat- ter- ing|Tell- ing the sto- ry of|
w: Sing of His|wond- rous love, Sing of the|Blend- ing with yon- der sac-|
w: March- ing we|on- ward go, Brave- ly we|Clad in the ar- mor of|
 [DG]2 [CA]2 [DB]2 [DG]2 | [CA]6 (3EEE x | [Ec]2 [Ec]2 [CA]2 (3EEE x | [Ed]2 [Ed]2 [Ec]2 (3EEE x | %7
w: ly the news pro-|claim, Je- sus has|Won- der- ful Sav- ior from||
w: let our voic- es|raise, Beau- ti- ful|Sow- ing the Gos- pel in||
w: er our prayer shall|be, Sow- ing, O|Guide us and teach us by||
 [FA]2 [Fd]2 [Ec]2 [DG]2 | [CA]6 ||"^Refrain" (3[FA][FA][FA] | [=EG]2 [Ec]2 [EG]2 (3[FA][FA][FA] | %11
w: ||||
w: ||||
w: ||||
 [=EG]2 [Ec]2 [EG]2 (3[FA][FA][FA] | [GB]2 [Gd]2 [Gd]2 [GB]2 | %13
w: ||
w: ||
w: ||
 (3[Ac][Ac][Ac] (3[A=d][Ad][Ad] [Ge]2 (3[CE][CE][CE] | [Ec]2 [Ec]2 [CA]2 (3EEE x | %15
w: ||
w: ||
w: ||
 [Ed]2 [Ed]2 [Ec]2 (3EEE x | [DF]2 [Fd]2 [Ec]2 [DG]2 | [CA]6 |] %18
w: |||
w: |||
w: |||
V:2
 x2 | x6 EEE | x6 EEE | x8 | x6 EEE | x6 EEE | x6 EEE | x8 | x6 || x2 | x8 | x8 | x8 | x8 | %14
w: |pre- cious seed,|His love; Glad-||come to reign,|a- bove. *|||||||||
w: |home a- bove,|red throng; Loud||songs of praise,|our song. *|||||||||
w: |face the foe,|our Lord; Ev-||Lord, for Thee,|Thy Word. *|||||||||
 x6 EEE | x6 EEE | x8 | x6 |] %18
w: ||||
w: ||||
w: ||||
V:3
 (3[A,,A,][A,,A,][A,,A,] | [A,,A,]2 [A,,A,]2 [A,,E,]2 (3[C,A,][C,A,][C,A,] x | %2
w: ~ ~ ~|~ ~ ~ ~ ~ ~|
 [B,,G,]2 [B,,G,]2 [A,,A,]2 (3[A,,A,][A,,A,][A,,A,] x | [E,B,]2 [E,A,]2 [E,G,]2 [E,B,]2 | %4
w: ~ ~ ~ ~ ~ ~|~ ~ ~ ~|
 [A,,A,]6 (3[C,A,][C,A,][C,A,] x | [A,,A,]2 [A,,A,]2 [A,,E,]2 (3[C,A,][C,A,][C,A,] x | %6
w: ~ ~ ~ ~|~ ~ ~ ~ ~ ~|
 [B,,G,]2 [B,,G,]2 [A,,A,]2 (3[C,A,][C,A,][C,A,] x | [D,A,]2 [D,A,]2 [E,A,]2 [E,B,]2 | [A,,A,]6 || %9
w: ~ ~ ~ ~ ~ ~|~ ~ ~ ~|~|
 (3[F,C][F,C][F,C] | [C,C]2 [C,G,]2 [C,C]2 (3[F,C][F,C][F,C] | %11
w: Sow- ing in|faith and prayer, Scat- ter- ing|
 [C,C]2 [C,G,]2 [C,C]2 (3[F,C][F,C][F,C] | [E,E]2 [E,B,]2 [E,B,]2 [E,E]2 | %13
w: ev- ery- where Seeds of the|truth in mer- cy,|
 (3[A,E][A,E][A,E] (3B,B,B, [E,A,]2 (3[A,,A,][A,,A,][A,,A,] | %14
w: Sow- ing for o- thers to share; From the wide|
 [A,,A,]2 [A,,A,]2 [A,,A,]2 (3[C,A,][C,A,][C,A,] x | %15
w: Gath- er- ing wand- erers in,|
 [B,,G,]2 [B,,G,]2 [A,,A,]2 (3[C,A,][C,A,][C,A,] x | [D,A,]2 [D,A,]2 [E,A,]2 [E,B,]2 | [A,,A,]6 |] %18
w: Sow- ing the truth with song|and prayer. * *||
V:4
 x2 | x9 | x9 | x8 | x9 | x9 | x9 | x8 | x6 || x2 | x8 | x8 | x8 | x2 B,B, B, x3 | x9 | x9 | x8 | %17
w: |||||||||||||fields of sin,||||
 x6 |] %18
w: |

